X:1
T:Title
%%score 1 2 3
L:1/8
M:3/2
K:C
V:1 treble nm="Part_1"
V:2 treble-8 nm="Part_2"
V:3 treble-8 nm="Part_3"
V:1
 z12 | D8 G4 | A6 G2 G4 | c6 A2 B4 | A4 G2 G4 F2 | G8 z4 | A6 G2 B2 A2 | G6 F2 E4 | F8 E4 | %9
 D2 E2 G2 A2 F2 E2 | G8 z4 | A4 (B4 c4) | A6 F2 G4 | c2 B2 G2 A2 F2 E2 | G12 || z12 | z12 | z12 | %18
 z12 | z12 | z12 | z12 | z12 | z12 | z12 | z12 | z12 | z12 | z12 | z12 || c6 B2 G4 | %31
 A2 B3 G G4 F2 | G12 | z12 | d6 B2 c4 | (B4 A6) G2 | A6 B2 A2 G2 | B8 z4 | c8 B4 | A8 G2 F2 | %40
 E4 F4 G4 | F4 E6 C2 | D6 E2 C2 B,2 | D8 z4 | A4 B4 c2 B2 | A6 F2 G3 A | B2 A3 F G4 F2 | G12 || %48
 G6 A2 B4 | c6 B2 A4 | z2 B4 A4 G2 | A2 B3 c d4 c2 | d8 z4 | B6 c2 A3 G | A6 G2 G2 F2 | A8 z4 | %56
 B6 A2 c4 | (B4 G6) E2 | G6 F2 F2 E2 | G8 z4 | A4 (B4 c4) | A6 F2 G4 | B2 A3 F G2 F2 E2 | G12 | %64
 G8 F4 | E2 G4 E2 D4 | C4 z4 G4 | A4 G4 F2 G2 | A3 F G2 G4 F2 | G8 z4 | G4 F4 E2 C2 | %71
 D4 E2 C4 B,2 | C8 z4 | G6 G2 A2 G2 | F8 G4 | A4 G2 c4 B2 | A4 G4 c4 | B2 A3 F G4 F2 | G12 || %79
 d8 c4 | d6 B2 c2 A2 | B8 A4 | B2 c2 d2 e2 c2 B2 | d8 z4 | B6 G2 A4 | G2 A2 B2 c4 B2 | c4 z4 B4 | %87
 c4 B6 A2 | G6 F2 F2 E2 | G8 z4 | A4 (B4 c4) | A6 G2 G2 F2 | A4 F6 E2 | G2 A3 E G2 F2 E2 | G12 || %95
 d6 c2 c2 B2 | d8 d4 | d4 c2 c4 B2 | c8 z4 | G8 F2 G2 | A8 B2 c2 | d6 c4 B2 | d8 z4 | d4 B4 c4 | %104
 (B4 A6) F2 | G6 F2 F2 E2 | G12 || d6 c2 B2 A2 | c4 B4 c2 B2 | A4 G2 G4 F2 | G4 z4 A2 B2 | %111
 c4 d2 d4 c2 | d8 z4 | G6 A2 B4 | A4 G4 A2 B2 | c4 B2 A4 G2 | A4 z4 c4 | d4 G4 A2 B2 | %118
 (c4 B4) A2 F2 | G6 A2 F2 E2 | G12 || d4 d4 c2 d2 | e3 d d2 e2 c2 B2 | d8 z4 | B6 G2 A4 | %125
 B2 c2 d6 c2 | e4 d2 d4 c2 | d8 z4 | c2 B4 G2 A4 | B8 A4 | c6 B2 d4 | d2 B3 A B3 AAG | B8 z4 | %133
 d4 B4 c4 | (B4 A6) F2 | G6 F2 F2 E2 | G12 || c6 B2 d4 | d4 c2 d2 B2 A2 | c8 z4 | A6 F2 G4 | %141
 A6 B2 c3 B | d2 e3 c d4 c2 | d8 z4 | d6 c2 e4 | c6 B2 A4 | c4 d6 B2 | c6 B2 B2 A2 | c8 z4 | %149
 G4 (B4 c4) | A4 (G4 c4) | B2 A3 F G3 FFE | G12 || c6 A2 B4 | A6 F2 G4 | A4 G4 F2 E2 | G8 z4 | %157
 G6 A2 B2 c2 | d4 d4 c2 B2 | A4 B2 d2 c2 B2 | d8 z4 | d8 d4 | e4 c2 B2 d4 | e4 d6 c2 | B6 A4 G2 | %165
 B8 z4 | d6 c2 B4 | c4 A6 F2 | G3 F A4 F2 E2 | D4 F2 G4 F2 | G12 || d12- | d4 c6 B2 | d6 B2 c4 | %174
 B4 c6 B2 | B4 A6 F2 | G6 A2 F2 E2 | G12 | z12 | G4 B4 c4 | d4 e6 c2 | d6 c2 c2 B2 | d8 z4 | %183
 c6 e2 d3 c | e8 d4 | c6 B2 d2 c2 | B6 A2 A2 G2 | B6 d2 c2 B2 | d6 c2 B4 | (d4 c6) B2 | %190
 A6 G2 G2 F2 | A6 B2 c4 | (B4 A4) c2 A2 | G2 A2 B2 G2 F2 E2 | G12 || d8 c4 | d4 c4 B4 | c8 c4 | %198
 B2 A3 G G4 F2 | G8 G4 | B4 c4 d4 | e4 d2 d2 c2 B2 | d8 z4 | c6 B2 d4 | e8 d4 | c6 B2 d4- | %206
 d2 c2 B2 B4 A2 | B8 z4 | B8 B4 | c2 B2 A2 A4 G2 | A6 G2 G2 F2 | G6 A2 c4 | B2 A3 F G3 FFE | G12 || %214
 G8 G4 | A4 G2 F4 E2 | F8 z4 | A8 A4 | B2 c2 d2 d4 c2 | d8 z4 | c6 B2 d4 | e8 d4 | c2 B3 G A4 G2 | %223
 A3 B c2 d4 c2 | d8 d4 | G4 B4 c4 | d4 e6 c2 | d6 c2 c2 B2 | d8 z4 | d4 c4 B3 A | F2 A2 G2 F2 A4 | %231
 z4 c6 A2 | B2 A3 F G3 FFE | G8 z4 | F8 A2 B2 | c6 d2 e4 | d2 c2 A2 d2 c2 B2 | d4 c2 B2 A4 | %238
 (G4 c6) A2 | B2 A3 F G3 E F2 | G12 || G4 G4 A4 | F4 z4 A4 | B4 c6 B2 | d6 e2 c2 B2 | d8 z4 | %246
 B6 G2 A2 B2 | c4 d4 G2 A2 | B4 A2 A4 G2 | A4 G2 F2 E4 | D8 z4 | d8 d2 c2 | B8 B2 A2 | %253
 G2 B4 d2 c2 B2 | d4 d4 d2 c2 | B4 A2 A4 G2 | A2 B2 c6 A2 | B4 A4 G2 A2 | c2 B2 G2 A2 F2 E2 | %259
 G8 z4 | F8 A4 | A2 B2 (c4 B4) | A4 G4 c4 | B2 A3 F G3 FFE | G12 |] %265
V:2
 d4 B4 c4 | (d12 | e8) d4 | e8 f4 | (e4 d4) c4 | d8 e4 | f8 d4 | B4 G8 | (A8 B4-) | B4 e4 c2 B2 | %10
 d12 | (D4 G4) C4 | F8 G4 | D2 E2 G2 A2 D4 | d12 || D4 G4 A4 | (G12 | (d12) | c8) d2 e2 | %19
 f4 e2 d4 c2 | d12 | D8 G4 | (C4 (E8) | D8) A4 | G2 F2 A2 G2 D4 | d8 e4 | (f4 d4) e4 | (c8 e4-) | %28
 e4 d2 e2 c2 B2 | d12 || c8 d4 | (e4 d4) c4 | d8 z4 | D8 A4 | (G4 d4) c4 | d4 (c4 e4) | %36
 d2 G4 B2 A4 | (E12 | e8) d4 | (A4 e4) d4 | (A4 D4) A2 G2 | D4 z2 c2 B4 | A6 G2 A2 F2 | A8 z4 | %44
 (D4 G4) F4 | D4 C8 | G4 A2 G2 D4 | d12 || (d4 (B8) | A8) A4 | (G4 D4) F2 G2 | A2 G2 D4 A4 | %52
 D8 D4 | G4 D8 | (A4 (E8) | e8) c4 | d8 c4 | (f4 (e8) | d8) c4 | d8 e4 | (f4 d4) c4 | e8 e4 | %62
 f4 e2 d4 c2 | d8 z4 | (c4 B4) A4 | C8 G4 | C8 C4 | F4 C2 E2 D4 | (A4 G4) D4 | d8 B4 | A4 D4 A4 | %71
 G4 C4 G4 | A8 F4 | C8 E4 | D4 G8 | F4 C8 | (c4 B4) c4 | d2 e2 c2 d4 c2 | d12 || D8 F4 | G4 D4 A4 | %81
 G8 d4 | A4 z2 D2 A4 | D12 | (E4 D4) D4 | (C4 G8) | C8 G4 | (A4 (D4) G4-) | G4 (D8 | d8) e4 | %90
 (f4 d4) e4 | e6 d2 d2 c2 | e8 c4 | d2 f2 e2 d4 c2 | d12 || G8 A4 | D8 D4 | A8 G4 | (C12 | E8) D4 | %100
 d8 A4 | (G4 B4) A4 | D8 G4 | d8 c4 | d4 e8 | d6 c2 c2 B2 | d12 || d4 d4 d4 | (c4 d4) c2 d2 | %109
 e4 d2 e2 c2 B2 | d4 z4 D4 | C4 D4 A4 | (D4 G8) | C8 G4 | F4 C4 D4 | (A4 G8) | D8 D4 | d4 e8 | %118
 (c4 d4) e4 | d6 c2 d2 c2 | d12 || d4 (B4 A4) | (G4 D4) A4 | D8 D4 | E8 (D4 | G6) E2 D2 E2 | %126
 C4 (D4 A4) | (D12 | A12) | G8 d4 | A8 D4 | E3 F (G4 A4) | E4 z4 z4 | (B4 d4) c4 | d4 e8 | %135
 d6 c2 c2 B2 | d12 || (c4 A4) G4 | (D4 A4) G4 | (C12 | F8) C4 | D8 A4- | A2 GF A2 D2 A4 | D8 z4 | %144
 E4 (C8 | D8) D4 | A4 d8 | (c4 G8) | C8 z4 | C8 E4 | D4 A8 | G4 A2 G2 D4 | d12 || (c4 A4) G4 | %154
 F8 C4 | G8 D4 | d8 z4 | (G4 (A8) | D8) C4 | (D4 (A8) | (D12) | G8) G4 | C8 G4 | A4 G8 | %164
 (E4 G4) A4 | E4 z4 D4 | G8 G4 | D4 C8 | (G4 F4) G2 A2 | D4 d2 d4 c2 | d12 || (d4 B4) G4 | %172
 (D4 (A8) | D8) F4 | z2 d2 (c4 e4) | f6 d2 e4 | d6 d2 c2 B2 | d2 B2 G4 B4 | d4 e4 f4 | c8 A4 | %180
 G8 G4 | (D4 (A8) | D8) D4 | A8 d4 | G8 D4 | (E4 D4) G4 | A12 | (E4 D4) C4 | G8 B4 | d4 c8 | %190
 (e4 d6) c2 | e8 f4 | d4 e8 | e4 d2 d4 c2 | d12 || z12 | z12 | z12 | z12 | z12 | z12 | z12 | z12 | %203
 z12 | z12 | z12 | z12 | z12 | z12 | z12 | z12 | z12 | z12 | z12 || (c8 e4-) | e4 d2 c4 B2 | %216
 (c8 A4-) | (A4 F8) | D8 A4 | D12 | C4 E4 D4 | (E4 D4) D4 | A4 D2 A2 G4 | F4 (C8 | D8) z4 | G8 F4 | %226
 (G4 A4) F4 | D8 A4 | D8 D4 | (G4 E4 G2) A2 | (c4 (d4) e4-) | e12 | e2 f2 d2 d4 c2 | d8 z4 | (D12 | %235
 A8) F4 | G2 A2 c2 d2 (c4 | d4) c2 d2 e4 | z2 e2 c4 f2 d2- | d2 f2 e2 d4 c2 | d12 || z12 | z12 | %243
 z12 | z12 | z12 | z12 | z12 | z12 | z12 | z12 | z12 | z12 | z12 | z12 | z12 | z12 | z12 | z12 | %259
 z12 | z12 | z12 | z12 | z12 | z12 |] %265
V:3
 D4 G4 A4 | (G12 | c8) B4 | A8 d4 | (c4 B4) A4 | (G12 | (F8) G4-) | G4 (E8 | (D8) G4-) | %9
 G4 (c4 A4) | (G12 | d8) e4 | c8 B4 | A2 B4 c2 A4 | G12 || z12 | z12 | D8 G4 | A8 G4 | %19
 F4 G2 B2 A4 | G12 | (d12 | e8) c4 | d8 c4 | B2 c4 d2 A4 | G8 G4 | (F4 G4) E4 | (F8 c4-) | %28
 c4 B2 G2 A4 | G12 || G8 B4 | (c4 B4) A4 | (G12 | d8) c4 | B8 A4 | G4 A8 | B2 e4 d2 c4 | B12 | %38
 A8 B4 | c8 G4 | (c4 d4) c2 B2 | A8 G4 | (F4 (E8) | D12) | (d8 A4-) | (A4 c8) | d4 c2 B2 A4 | %47
 G12 || G8 d4 | e8 c4 | d8 c2 B2 | A2 d4 f2 e4 | d12- | d8 d4 | (c4 (B8) | A12) | G8 A4 | d8 c4 | %58
 (B4 (A8) | G8) G4 | (F4 (G4) A4-) | (A4 c8) | d4 c2 B2 A4 | (G12 | c8) d4 | c6 A2 B4 | c12- | %67
 c8 d4 | c4 B2 G2 A4 | G8 G4 | c4 d4 (c4 | G4) c2 e2 d4 | c12- | c8 c4 | d4 B8 | A4 c8 | %76
 (F4 G4) A4 | B2 c4 G2 A4 | G12 || d8 A4 | d4 f4 e2 f2 | g8 f4 | (e4 f4) e4 | d12 | g8 f4 | %85
 (e4 (d8) | c8) d4 | e4 d8 | (B4 (A8) | G8) G4 | F4 (G4 A4) | c4 (B8 | A8) A4 | G2 F2 G2 B2 A4 | %94
 G12 || g8 e4 | (d8 f4-) | f4 (e4 d4) | c12- | c8 d4 | f8 e4 | (g4 f4) e4 | (d8 B4-) | B4 (G4 A4) | %104
 B4 c8 | B4 (A8 | G12) || G8 G4 | (A4 G4) A2 B2 | c4 B4 A4 | G8 d4 | (e4 f4) e4 | (d12 | c8) d4 | %114
 (f4 e4) d4 | (c4 d4) B4 | A8 A4 | G4 c8 | (A4 G4) c4 | B4 (A8 | G12) || d4 f8 | (g4 f4) e4 | d12 | %124
 g8 f4 | e4 d8 | c4 d2 f2 e4 | (d12 | e8) f4 | g8 f4 | e8 d4 | B2 A2 d4 c4 | (B12 | G8) A4 | %134
 B4 c8 | B4 (A8 | G12) || c8 g4 | (f4 e4) d4 | (c12 | d8) e4 | f8 e4 | d2 c2 d2 f2 e4 | d12 | %144
 (g12 | f8) f4 | e4 f8 | (e4 (d8) | (c12) | e8) e4 | f4 e8 | d4 c2 B2 A4 | G12 || c8 e4 | f8 e4 | %155
 d4 B2 G2 A4 | G8 G4 | (g4 (e8) | d8) e2 g2 | f4 (e8 | d12-) | d12 | c8 B4 | c4 d8 | e4 c4 c4 | %165
 (B8 d4-) | d4 B8 | A4 c8 | (B4 c4) d2 c2 | d4 B2 G2 A4 | G12 || d8 g4 | (f4 (e8) | d8) A4 | %174
 (G4 (A8) | d8) c4 | (B4 (A8) | G8) G4 | B4 c4 d4 | e8 e4 | d4 g8 | (f4 (e8) | (d12) | e8) f4 | %184
 g8 f4 | e8 d4 | d4 c8 | (B4 d4) e4 | (d8 G4-) | G4 A8 | c4 (B8 | A8) F4 | (G4 A6) B2 | %193
 c4 G2 B2 A4 | G12 || d8 e4 | f4 e4 d4 | c8 e4 | d4 c2 B2 A4 | G4 G4 B4 | d4 e4 f4 | g4 f2 d2 e4 | %202
 (d12 | e8) f4 | g8 f4 | e8 d4 | f3 e (d4 c4) | B12 | d8 d4 | (e4 c4) B4 | (A12 | B8) e4 | %212
 d2 c2 B2 G2 A4 | G12 || c8 c4 | c4 B2 A2 G4 | F8 F4 | c8 c4 | d4 f4 e4 | d12 | e8 f4 | e4 g4 f4 | %222
 e4 d2 c2 B4 | (A4 (e8) | d8) G4 | B4 d4 e4 | d4 c8 | d4 f4 e4 | d12- | d4 e4 d4 | (A4 (B4) c4-) | %231
 c4 A8 | G2 F2 G2 B2 A4 | G8 G4 | (d12 | c8) c4 | B2 A4 G2 A4 | G4 A4 c4- | c4 F8 | %239
 G2 F2 G2 B2 A4 | G12 || (G8 d4-) | d4 c8 | d4 e8 | f4 g4 e4 | (d12 | e8) f4 | (e4 d4) e4- | %248
 e4 c2 A2 B4 | A4 B2 d2 c4 | d8 z4 | G8 B4 | (d8 g4-) | g4 d2 f2 e4 | d8 B2 A2 | G4 A3 c B4 | %256
 A4 F8 | G4 c8 | A2 B2 c4 G4 | G8 (F4 | A4) d8 | (d4 c4) G4 | F4 (G4 A4) | d4 c2 B2 A4 | G12 |] %265

